src/pos-icons/water-boiler-off.svg

<svg height="24" viewBox="0 0 24 24" width="24" xmlns="http://www.w3.org/2000/svg"><path d="m10 6.82-3.75-3.77c.34-.63.99-1.05 1.75-1.05h8c1.11 0 2 .89 2 2v10.8l-5.84-5.84c1.03-.09 1.84-.96 1.84-1.99 0-1.1-.89-2-2-2-1.05 0-1.9.81-2 1.85m5 11.18v2h3v2h-3c-1.11 0-2-.89-2-2v-2h-2v2c0 1.11-.89 2-2 2h-3v-2h3v-2h-1c-1.11 0-2-.89-2-2v-8.11l-4.89-4.89 1.28-1.27 19.72 19.73-1.27 1.27-4.74-4.73c-.04 0-.07 0-.1 0zm-1-2v-.11l-1.39-1.39h-2.61v1.5z"/></svg>

<?xml version="1.0" encoding="UTF-8"?><!DOCTYPE svg PUBLIC "-//W3C//DTD SVG 1.1//EN" "http://www.w3.org/Graphics/SVG/1.1/DTD/svg11.dtd"><svg xmlns="http://www.w3.org/2000/svg" xmlns:xlink="http://www.w3.org/1999/xlink" version="1.1" id="mdi-water-boiler-off" width="24" height="24" viewBox="0 0 24 24"><path d="M10 6.82L6.25 3.05C6.59 2.42 7.24 2 8 2H16C17.11 2 18 2.89 18 4V14.8L12.16 8.96C13.19 8.87 14 8 14 6.97C14 5.87 13.11 4.97 12 4.97C10.95 4.97 10.1 5.78 10 6.82M15 18V20H18V22H15C13.89 22 13 21.11 13 20V18H11V20C11 21.11 10.11 22 9 22H6V20H9V18H8C6.89 18 6 17.11 6 16V7.89L1.11 3L2.39 1.73L22.11 21.46L20.84 22.73L16.1 18C16.06 18 16.03 18 16 18H15M14 16V15.89L12.61 14.5H10V16H14Z" /></svg>
